dist/img/icons/main/advantages/plain.svg

<svg width="70" height="70" viewBox="0 0 70 70" fill="none" xmlns="http://www.w3.org/2000/svg">
<g clip-path="url(#clip0_57_170)">
<path d="M39.5719 3.16301C38.961 1.72786 37.7579 0.637789 36.2166 0.158585C33.9618 -0.430132 31.5859 0.656383 30.553 2.7374C28.866 6.12655 27.9847 9.92136 28.0056 13.7022V50.1814C28.0056 50.2549 28.0126 50.3283 28.0267 50.4018L31.1651 66.6631C31.4298 68.5669 33.0782 69.9997 34.9972 69.9997C34.9984 69.9997 35.0008 69.9997 35.0031 69.9997C36.9244 69.9997 38.5717 68.5658 38.8259 66.7238L41.9736 50.402C41.9888 50.3297 41.9958 50.2551 41.9958 50.1816V13.6999C41.9876 10.0521 41.1411 6.39015 39.5719 3.16301ZM39.664 50.0684L36.5279 66.3412C36.4231 67.0978 35.7667 67.668 34.9995 67.668C34.2336 67.668 33.5783 67.0978 33.4653 66.2817L30.3385 50.0695V13.6965C30.3199 10.2725 31.1161 6.84133 32.6422 3.7751C33.1878 2.67683 34.4469 2.10439 35.5754 2.39943C36.409 2.65947 37.0852 3.27033 37.4501 4.12716C38.8911 7.09426 39.6558 10.4052 39.664 13.7022V50.0684Z" fill="#007AFF"/>
<path d="M29.7684 25.8623C29.4151 25.6514 28.9755 25.6432 28.6165 25.8389L0.636317 40.9951C0.25979 41.199 0.0254517 41.592 0.0254517 42.0198V49.0148C0.0254517 49.3972 0.211938 49.7539 0.526804 49.9731C0.725048 50.1095 0.957062 50.1806 1.1914 50.1806C1.32894 50.1806 1.46771 50.1572 1.6006 50.1072L29.5808 39.6146C30.0355 39.4433 30.3374 39.0084 30.3374 38.5222V26.8638C30.3373 26.4535 30.1216 26.0734 29.7684 25.8623ZM28.0056 37.7143L2.35708 47.3326V42.7147L28.0056 28.8226V37.7143Z" fill="#007AFF"/>
<path d="M69.3649 40.9951L41.3848 25.8391C41.0234 25.6444 40.5862 25.6514 40.2329 25.8625C39.8808 26.0724 39.664 26.4524 39.664 26.864V38.5224C39.664 39.0085 39.9648 39.4445 40.4195 39.6148L68.3997 50.1073C68.5338 50.1563 68.6724 50.1808 68.8101 50.1808C69.0445 50.1808 69.2765 50.1108 69.4723 49.9732C69.787 49.7552 69.9747 49.3974 69.9747 49.0149V42.0199C69.9747 41.592 69.7404 41.1991 69.3649 40.9951ZM67.6442 47.3326L41.9956 37.7144V28.8213L67.6442 42.7146V47.3326Z" fill="#007AFF"/>
<path d="M18.6788 26.8649C16.7505 26.8649 15.1812 28.4341 15.1812 30.3624V33.86H17.5128V30.3624C17.5128 29.72 18.0363 29.1966 18.6787 29.1966C19.321 29.1966 19.8445 29.7201 19.8445 30.3624V31.5283H22.1761V30.3624C22.1764 28.434 20.6071 26.8649 18.6788 26.8649Z" fill="#007AFF"/>
<path d="M8.18623 32.693C6.25793 32.693 4.68866 34.2623 4.68866 36.1906V39.6881H7.02028V36.1906C7.02028 35.5483 7.54378 35.0258 8.1861 35.0258C8.82841 35.0258 9.35191 35.5481 9.35191 36.1906H11.6835C11.6838 34.2623 10.1145 32.693 8.18623 32.693Z" fill="#007AFF"/>
<path d="M51.3224 26.8649C49.3941 26.8649 47.8248 28.4341 47.8248 30.3624V31.5283H50.1565V30.3624C50.1565 29.72 50.6787 29.1966 51.3223 29.1966C51.9658 29.1966 52.4881 29.7201 52.4881 30.3624V33.86H54.8197V30.3624C54.82 28.434 53.2507 26.8649 51.3224 26.8649Z" fill="#007AFF"/>
<path d="M61.815 32.693C59.8867 32.693 58.3174 34.2623 58.3174 36.1906H60.6491C60.6491 35.5483 61.1713 35.0258 61.8149 35.0258C62.4584 35.0258 62.9807 35.5481 62.9807 36.1906V39.6881H65.3123V36.1906C65.3126 34.2623 63.7433 32.693 61.815 32.693Z" fill="#007AFF"/>
<path d="M32.4754 65.3532L19.8435 67.4587V64.832L30.9366 58.1762L29.7369 56.1768L18.0785 63.1718C17.7275 63.3817 17.513 63.7606 17.513 64.171V68.8344C17.513 69.1771 17.6646 69.5036 17.9258 69.7239C18.1379 69.9034 18.405 70.0002 18.6789 70.0002C18.7418 70.0002 18.806 69.9943 18.869 69.985L32.8591 67.6534L32.4754 65.3532Z" fill="#007AFF"/>
<path d="M51.9216 63.1718L40.2632 56.1768L39.0637 58.1762L50.1567 64.832V67.4575L37.5236 65.352L37.1412 67.6522L51.1314 69.9838C51.1955 69.9943 51.2584 70 51.3225 70C51.5965 70 51.8635 69.9032 52.0745 69.7237C52.3369 69.5022 52.4873 69.177 52.4873 68.8342V64.1708C52.4871 63.7618 52.2726 63.3829 51.9216 63.1718Z" fill="#007AFF"/>
<path d="M37.6436 8.9482C37.2624 7.80686 36.1747 7.07349 34.9878 7.04437C33.7509 7.05599 32.6876 7.86168 32.3565 9.0007L31.5637 11.3323L33.7718 12.0832L34.5797 9.70248C34.6369 9.50903 34.8094 9.37723 35.0018 9.376C35.1977 9.376 35.3702 9.50068 35.432 9.68375L36.2249 12.0738L38.4377 11.3404L37.6436 8.9482Z" fill="#007AFF"/>
</g>
<defs>
<clipPath id="clip0_57_170">
<rect width="70" height="70" fill="white"/>
</clipPath>
</defs>
</svg>

<svg width="70" height="70" fill="none" xmlns="http://www.w3.org/2000/svg"><g clip-path="url(#clip0_57_170)" fill="#007AFF"><path d="M39.572 3.163C38.96 1.728 37.758.638 36.217.159a4.947 4.947 0 00-5.664 2.578 24.434 24.434 0 00-2.547 10.965v36.48c0 .073.007.146.02.22l3.14 16.261A3.885 3.885 0 0034.996 70h.006c1.921 0 3.569-1.434 3.823-3.276l3.148-16.322c.015-.072.022-.147.022-.22V13.7a24.422 24.422 0 00-2.424-10.537zm.092 46.905l-3.136 16.273a1.546 1.546 0 01-1.529 1.327c-.765 0-1.42-.57-1.534-1.386L30.338 50.07V13.697a22.106 22.106 0 012.304-9.922c.546-1.098 1.805-1.67 2.933-1.376.834.26 1.51.871 1.875 1.728a22.172 22.172 0 012.214 9.575v36.366z"/><path d="M29.768 25.862a1.164 1.164 0 00-1.152-.023L.636 40.995c-.376.204-.61.597-.61 1.025v6.995A1.166 1.166 0 001.6 50.107l27.98-10.492a1.17 1.17 0 00.756-1.093V26.864c0-.41-.215-.79-.569-1.002zm-1.762 11.852L2.357 47.333v-4.618l25.649-13.892v8.891zm41.359 3.281L41.385 25.84a1.166 1.166 0 00-1.721 1.025v11.658c0 .486.3.922.755 1.093L68.4 50.107c.135.05.273.074.411.074a1.166 1.166 0 001.165-1.166V42.02c0-.428-.235-.82-.61-1.025zm-1.72 6.338l-25.65-9.619v-8.893l25.65 13.894v4.618z"/><path d="M18.679 26.865a3.502 3.502 0 00-3.498 3.497v3.498h2.332v-3.498a1.167 1.167 0 012.332 0v1.166h2.331v-1.166a3.501 3.501 0 00-3.497-3.497zM8.186 32.693a3.502 3.502 0 00-3.497 3.498v3.497H7.02v-3.497a1.167 1.167 0 012.332 0h2.332a3.501 3.501 0 00-3.498-3.498zm43.136-5.828a3.502 3.502 0 00-3.497 3.497v1.166h2.331v-1.166a1.167 1.167 0 012.332 0v3.498h2.332v-3.498a3.501 3.501 0 00-3.498-3.497zm10.493 5.828a3.502 3.502 0 00-3.498 3.498h2.332a1.166 1.166 0 012.332 0v3.497h2.331v-3.497a3.501 3.501 0 00-3.497-3.498zm-29.34 32.66L19.843 67.46v-2.627l11.094-6.656-1.2-2-11.659 6.996c-.35.21-.565.589-.565.999v4.663a1.165 1.165 0 001.356 1.151l13.99-2.332-.384-2.3zm19.447-2.181l-11.659-6.995-1.2 2 11.094 6.655v2.626l-12.633-2.106-.383 2.3 13.99 2.332a1.16 1.16 0 00.943-.26c.263-.222.413-.547.413-.89v-4.663c0-.41-.214-.788-.565-1zM37.644 8.948c-.382-1.141-1.47-1.875-2.656-1.904-1.237.012-2.3.818-2.632 1.957l-.792 2.331 2.208.751.808-2.38a.448.448 0 01.422-.327c.196 0 .368.125.43.308l.793 2.39 2.213-.734-.794-2.392z"/></g><defs><clipPath id="clip0_57_170"><path fill="#fff" d="M0 0h70v70H0z"/></clipPath></defs></svg>
